mockup/templates/main/build/images/GROHE SmartControl.svg

<svg xmlns="http://www.w3.org/2000/svg" width="48" height="48" viewBox="0 0 48 48">
  <g fill="none" fill-rule="evenodd">
    <rect width="48" height="48" fill="#132D52" rx="8"/>
    <path fill="#FFF" d="M28.0845083 36.552201C28.0845083 35.9402286 28.5787937 35.4459432 29.1907661 35.4459432 29.8009279 35.4459432 30.2970239 35.9402286 30.2970239 36.552201 30.2970239 37.1623628 29.8009279 37.6584588 29.1907661 37.6584588 28.5787937 37.6584588 28.0845083 37.1623628 28.0845083 36.552201zM28.6378183 33.2033722C28.6378183 32.5913998 29.1321037 32.0971144 29.744076 32.0971144 30.3542379 32.0971144 30.8503338 32.5913998 30.8503338 33.2033722 30.8503338 33.813534 30.3542379 34.3078194 29.744076 34.3078194 29.1321037 34.3078194 28.6378183 33.813534 28.6378183 33.2033722zM27.5628833 39.8092339C27.5628833 39.1972615 28.0571687 38.7029761 28.6673305 38.7029761 29.2793029 38.7029761 29.7753989 39.1972615 29.7753989 39.8092339 29.7753989 40.4212063 29.2793029 40.9154917 28.6673305 40.9154917 28.0571687 40.9154917 27.5628833 40.4212063 27.5628833 39.8092339zM37.7013466 36.552201C37.7013466 35.9402286 38.1974426 35.4459432 38.809415 35.4459432 39.4177662 35.4459432 39.9156727 35.9402286 39.9156727 36.552201 39.9156727 37.1623628 39.4177662 37.6584588 38.809415 37.6584588 38.1974426 37.6584588 37.7013466 37.1623628 37.7013466 36.552201zM37.1496662 33.2033722C37.1496662 32.5913998 37.6439516 32.0971144 38.2541134 32.0971144 38.8660858 32.0971144 39.3621817 32.5913998 39.3621817 33.2033722 39.3621817 33.813534 38.8660858 34.3078194 38.2541134 34.3078194 37.6439516 34.3078194 37.1496662 33.813534 37.1496662 33.2033722zM38.2247822 39.8092339C38.2247822 39.1972615 38.7190676 38.7029761 39.3310399 38.7029761 39.9412018 38.7029761 40.4372977 39.1972615 40.4372977 39.8092339 40.4372977 40.4212063 39.9412018 40.9154917 39.3310399 40.9154917 38.7190676 40.9154917 38.2247822 40.4212063 38.2247822 39.8092339zM32.9096752 39.8092339C32.9096752 39.1972615 33.4039606 38.7029761 34.0141224 38.7029761 34.6260948 38.7029761 35.1221908 39.1972615 35.1221908 39.8092339 35.1221908 40.4212063 34.6260948 40.9154917 34.0141224 40.9154917 33.4039606 40.9154917 32.9096752 40.4212063 32.9096752 39.8092339zM32.9096752 33.2033722C32.9096752 32.5913998 33.4039606 32.0971144 34.0141224 32.0971144 34.6260948 32.0971144 35.1221908 32.5913998 35.1221908 33.2033722 35.1221908 33.813534 34.6260948 34.3078194 34.0141224 34.3078194 33.4039606 34.3078194 32.9096752 33.813534 32.9096752 33.2033722zM41.0041869 29.2251895L40.508091 29.2396741 38.3372185 29.2776961C36.8923843 29.3012335 35.4493606 29.3139074 34.0027159 29.3139074 32.5578816 29.3139074 31.1094263 29.3012335 29.6645921 29.2776961L27.4973407 29.2396741C27.3706009 29.236053 27.1841123 29.2505375 26.9596017 29.2396741 26.4291049 29.2052733 26 28.752631 26 28.2148919 26 27.6843952 26.3621138 27.260722 26.9342537 27.2172683 27.1098789 27.1955415 27.3941383 27.1864886 27.6258911 27.1720041 28.3066652 27.1339821 28.9892497 27.0995813 29.6700238 27.0760439 31.114858 27.0217268 32.5596922 27 34.006337 27 35.4511712 27 36.8941949 27.0217268 38.3408397 27.0760439 39.0632568 27.0995813 39.7856739 27.1376033 40.508091 27.1810569 40.6456942 27.1901098 40.7615707 27.2045943 41.0367772 27.2299423 41.5618423 27.3222813 42 27.6862057 42 28.2148919 42 28.7671155 41.5020935 29.2161367 41.0041869 29.2251895zM32.9096752 36.552201C32.9096752 35.9402286 33.4039606 35.4459432 34.0141224 35.4459432 34.6260948 35.4459432 35.1221908 35.9402286 35.1221908 36.552201 35.1221908 37.1623628 34.6260948 37.6584588 34.0141224 37.6584588 33.4039606 37.6584588 32.9096752 37.1623628 32.9096752 36.552201zM10.9983935 11.5750057C11.2987243 11.8102401 11.351985 12.245202 11.1167505 12.5455329 10.881516 12.8473432 10.449513 12.9006038 10.1477027 12.6638898 9.84737188 12.4286554 9.79411124 11.9951729 10.0293457 11.6933626 10.2645802 11.3930318 10.6980627 11.3397712 10.9983935 11.5750057zM8.62607582 9.71694906C8.92492719 9.95218355 8.97818783 10.3871454 8.7444328 10.6874763 8.50919831 10.9892866 8.07571588 11.0425472 7.77538505 10.8058332 7.47505422 10.5720782 7.42179358 10.1371163 7.65554861 9.83530603 7.8907831 9.5349752 8.32426553 9.48171456 8.62607582 9.71694906zM10.3034901 9.25032667C10.0682556 9.55213697 9.63477316 9.60391814 9.33444233 9.36868365 9.0341115 9.13492862 8.9793714 8.69996673 9.21608536 8.39815644 9.44984039 8.09782561 9.88332282 8.04456497 10.1836536 8.27979946 10.4854639 8.51503395 10.5372451 8.94999584 10.3034901 9.25032667zM6.14679304 11.2397595C6.38202754 10.9394287 6.81550997 10.8846886 7.1158408 11.1214025 7.41617163 11.356637 7.47091173 11.7901195 7.23419777 12.0919298 7.00044274 12.3922606 6.56696031 12.4455212 6.26515002 12.2102867 5.96481919 11.9750522 5.91155855 11.5415698 6.14679304 11.2397595zM12.3868688 13.5398794C12.6206238 13.2380691 13.0541062 13.1848085 13.3559165 13.420043 13.6562474 13.6552775 13.709508 14.0902394 13.4742735 14.3920497 13.239039 14.6923805 12.8055566 14.7456411 12.5052258 14.5104066 12.2048949 14.2751721 12.1516343 13.8402103 12.3868688 13.5398794zM13.4010401 11.6760529C13.6362746 11.3757221 14.069757 11.320982 14.3700879 11.5576959 14.6704187 11.7929304 14.7251588 12.2264129 14.4899243 12.5282232 14.2546898 12.828554 13.8212074 12.8818146 13.5193971 12.6465801 13.2205457 12.4113456 13.1658056 11.9763838 13.4010401 11.6760529zM11.3913387 15.3458589C11.6265731 15.0455281 12.0600556 14.9922675 12.3603864 15.2260225 12.6607172 15.461257 12.7154573 15.8962189 12.4787434 16.1980292 12.2449883 16.49836 11.8115059 16.5516207 11.5096956 16.3163862 11.2093648 16.0811517 11.1561042 15.6461898 11.3913387 15.3458589zM8.77638919 13.2985791C9.01162368 12.9982483 9.44510611 12.9449877 9.7469164 13.1787427 10.0457678 13.4154566 10.1005079 13.8504185 9.86527338 14.1507494 9.63003888 14.4525597 9.19655646 14.5043408 8.89622563 14.2691063 8.5958948 14.0338719 8.54263416 13.6003894 8.77638919 13.2985791zM12.4041785 10.8959325C12.168944 11.1962633 11.7354616 11.249524 11.4351307 11.0142895 11.1347999 10.779055 11.0800598 10.3440931 11.3167738 10.0437623 11.5520082 9.74195197 11.9854907 9.68869133 12.2858215 9.92540528 12.5861523 10.1606398 12.6379335 10.5941222 12.4041785 10.8959325zM21.9051369 20.0052772C22.2439337 21.0690106 21.56634 21.2391487 21.56634 21.2391487L20.7156493 21.6223294C19.7392042 22.1756483 19.610491 20.855968 19.610491 20.855968 17.5717921 11.7927825 11.4349828 8.36782746 10.6922928 7.94322181 9.94960272 7.51713669 9.94960272 7.56004109 9.88450639 7.26118973 9.82088951 6.96381782 9.85343768 6.4948283 9.85343768 6.4948283 10.0339321 5.50654754 11.1583234 6.30397767 11.1583234 6.30397767 18.8885134 10.3887728 21.56634 18.9415439 21.9051369 20.0052772z"/>
    <path stroke="#B4C0D0" stroke-linecap="round" stroke-linejoin="round" d="M11.8598493,37.0397351 L37.1496662,11.0016631"/>
  </g>
</svg>

<svg xmlns="http://www.w3.org/2000/svg" width="48" height="48"><g fill="none" fill-rule="evenodd"><rect width="48" height="48" fill="#132D52" rx="8"/><path fill="#FFF" d="M28.085 36.552a1.106 1.106 0 1 1 2.213 0 1.106 1.106 0 0 1-2.213 0zm.553-3.349a1.106 1.106 0 1 1 2.213 0 1.106 1.106 0 0 1-2.213 0zm-1.075 6.606a1.107 1.107 0 1 1 2.212 0 1.107 1.107 0 0 1-2.212 0zM37.7 36.552a1.107 1.107 0 1 1 2.213 0 1.107 1.107 0 0 1-2.213 0zm-.551-3.349a1.107 1.107 0 1 1 2.212 0 1.107 1.107 0 0 1-2.212 0zm1.075 6.606a1.106 1.106 0 1 1 2.213 0 1.106 1.106 0 0 1-2.213 0zm-5.315 0a1.107 1.107 0 1 1 2.212 0 1.107 1.107 0 0 1-2.212 0zm0-6.606a1.107 1.107 0 1 1 2.212 0 1.107 1.107 0 0 1-2.212 0zm8.094-3.978l-.496.015-2.17.038a265.933 265.933 0 0 1-8.673 0l-2.168-.038c-.126-.004-.313.01-.537 0a1.036 1.036 0 0 1-.96-1.025c0-.53.362-.954.934-.998.176-.021.46-.03.692-.045a96.48 96.48 0 0 1 2.044-.096A115.39 115.39 0 0 1 34.006 27c1.445 0 2.888.022 4.335.076.722.024 1.445.062 2.167.105.138.01.254.024.529.049.525.092.963.456.963.985 0 .552-.498 1.001-.996 1.01zm-8.094 7.327a1.107 1.107 0 1 1 2.212 0 1.107 1.107 0 0 1-2.212 0zM10.998 11.575a.692.692 0 0 1-.85 1.089.692.692 0 0 1 .85-1.089zM8.626 9.717c.299.235.352.67.118.97a.687.687 0 0 1-.969.119.692.692 0 0 1 .85-1.089zm1.677-.467a.69.69 0 1 1-1.09-.852.69.69 0 0 1 1.09.852zm-4.156 1.99a.69.69 0 1 1 1.089.852.69.69 0 0 1-1.09-.852zm6.24 2.3a.689.689 0 0 1 .969-.12c.3.235.354.67.118.972a.69.69 0 1 1-1.087-.852zm1.014-1.864a.692.692 0 1 1 .118.97.693.693 0 0 1-.118-.97zm-2.01 3.67a.692.692 0 1 1 1.09.852.692.692 0 0 1-1.09-.852zm-2.615-2.047a.693.693 0 0 1 .97-.12.695.695 0 0 1 .12.972.689.689 0 0 1-.97.118.693.693 0 0 1-.12-.97zm3.628-2.403a.69.69 0 1 1-1.087-.852.687.687 0 0 1 .969-.119c.3.236.352.67.118.97zm9.501 9.11c.339 1.063-.339 1.233-.339 1.233l-.85.383c-.977.554-1.106-.766-1.106-.766-2.038-9.063-8.175-12.488-8.918-12.913-.742-.426-.742-.383-.807-.682-.064-.297-.032-.766-.032-.766.18-.988 1.305-.191 1.305-.191 7.73 4.085 10.408 12.638 10.747 13.701z"/><path stroke="#B4C0D0" stroke-linecap="round" stroke-linejoin="round" d="M11.86 37.04l25.29-26.038"/></g></svg>
